public/Img/Home/discover__management.svg

<svg width="36" height="36" viewBox="0 0 36 36" fill="none" xmlns="http://www.w3.org/2000/svg">
<path fill-rule="evenodd" clip-rule="evenodd" d="M11.5056 17.4339C8.715 16.2933 6.75002 13.5521 6.75002 10.35C6.75002 6.12333 10.1734 2.69995 14.4 2.69995C18.6266 2.69995 22.05 6.12333 22.05 10.35C22.05 13.5522 20.085 16.2934 17.2943 17.434C19.98 18.0653 22.3344 19.5559 24.0515 21.5999H19.721L19.5722 21.604C18.1937 21.6801 17.0996 22.808 17.0996 24.1883V29.6999H1.7998C1.7998 23.7371 5.9418 18.7417 11.5056 17.4339ZM18.442 12.1973C17.9758 14.0214 16.3102 15.3 14.4002 15.3C12.4901 15.3 10.8245 14.0214 10.3584 12.1973L12.3788 11.7C12.6095 12.6145 13.4433 13.2565 14.4002 13.2565C15.3571 13.2565 16.1909 12.6145 16.4216 11.7L18.442 12.1973Z" fill="#1D2130"/>
<path fill-rule="evenodd" clip-rule="evenodd" d="M18.9004 24.9144C18.9004 24.0779 19.5784 23.3999 20.4148 23.3999H31.7859C32.6223 23.3999 33.3004 24.0779 33.3004 24.9144V31.1115C33.3004 31.9479 32.6223 32.6259 31.7859 32.6259H20.4148C19.5784 32.6259 18.9004 31.9479 18.9004 31.1115V24.9144ZM23.1924 32.626H29.0078C28.6342 32.626 27.7209 33.2426 27.0167 33.7629C26.484 34.1565 25.741 34.1269 25.2227 33.7145C24.5826 33.2051 23.7354 32.626 23.1924 32.626ZM22.7085 28.9355C23.2438 28.9355 23.6777 28.5225 23.6777 28.0129C23.6777 27.5034 23.2438 27.0903 22.7085 27.0903C22.1732 27.0903 21.7393 27.5034 21.7393 28.0129C21.7393 28.5225 22.1732 28.9355 22.7085 28.9355ZM26.1011 28.9355C26.6364 28.9355 27.0703 28.5225 27.0703 28.0129C27.0703 27.5034 26.6364 27.0903 26.1011 27.0903C25.5658 27.0903 25.1318 27.5034 25.1318 28.0129C25.1318 28.5225 25.5658 28.9355 26.1011 28.9355ZM30.4619 28.0129C30.4619 28.5225 30.028 28.9355 29.4927 28.9355C28.9574 28.9355 28.5234 28.5225 28.5234 28.0129C28.5234 27.5034 28.9574 27.0903 29.4927 27.0903C30.028 27.0903 30.4619 27.5034 30.4619 28.0129Z" fill="url(#paint0_radial_262_149)"/>
<defs>
<radialGradient id="paint0_radial_262_149" cx="0" cy="0" r="1" gradientUnits="userSpaceOnUse" gradientTransform="translate(11.772 -3.20436) rotate(56.7643) scale(61.5658 216.908)">
<stop offset="0.175497" stop-color="#D798E1"/>
<stop offset="0.275566" stop-color="#9B9FFF"/>
<stop offset="0.49892" stop-color="#AED3FF"/>
<stop offset="0.565292" stop-color="#C9D4EF"/>
<stop offset="0.656871" stop-color="#CACFFA"/>
</radialGradient>
</defs>
</svg>

<svg width="36" height="36" fill="none" xmlns="http://www.w3.org/2000/svg"><path fill-rule="evenodd" clip-rule="evenodd" d="M11.506 17.434A7.65 7.65 0 0 1 6.75 10.35 7.648 7.648 0 0 1 14.4 2.7a7.648 7.648 0 0 1 7.65 7.65 7.65 7.65 0 0 1-4.756 7.084 12.598 12.598 0 0 1 6.758 4.166H19.72l-.149.004c-1.378.076-2.472 1.204-2.472 2.584V29.7H1.8c0-5.963 4.142-10.958 9.706-12.266Zm6.936-5.237C17.976 14.021 16.31 15.3 14.4 15.3c-1.91 0-3.575-1.279-4.042-3.103l2.02-.497a2.077 2.077 0 0 0 2.022 1.557c.957 0 1.79-.643 2.022-1.557l2.02.497Z" fill="#1D2130"/><path fill-rule="evenodd" clip-rule="evenodd" d="M18.9 24.914c0-.836.678-1.514 1.515-1.514h11.37c.837 0 1.515.678 1.515 1.514v6.197c0 .837-.678 1.515-1.514 1.515H20.415a1.514 1.514 0 0 1-1.515-1.514v-6.198Zm4.292 7.712h5.816c-.374 0-1.287.617-1.991 1.137a1.483 1.483 0 0 1-1.794-.048c-.64-.51-1.488-1.089-2.03-1.089Zm-.483-3.69c.535 0 .969-.413.969-.923s-.434-.923-.97-.923c-.535 0-.969.413-.969.923s.434.922.97.922Zm3.392 0c.535 0 .97-.413.97-.923s-.435-.923-.97-.923c-.535 0-.97.413-.97.923s.435.922.97.922Zm4.36-.923c0 .51-.433.922-.968.922-.536 0-.97-.412-.97-.922s.434-.923.97-.923c.535 0 .969.413.969.923Z" fill="url(#a)"/><defs><radialGradient id="a" cx="0" cy="0" r="1" gradientUnits="userSpaceOnUse" gradientTransform="rotate(56.764 8.851 9.292) scale(61.5658 216.908)"><stop offset=".175" stop-color="#D798E1"/><stop offset=".276" stop-color="#9B9FFF"/><stop offset=".499" stop-color="#AED3FF"/><stop offset=".565" stop-color="#C9D4EF"/><stop offset=".657" stop-color="#CACFFA"/></radialGradient></defs></svg>
